!!!COM: Wacław z Szamotuł
!!!CDT: ~1524–~1560
!!!ODT:
!!!LYR:
!!!OTL: Alleluja, chwalcie Pana
!!!PPR:
!!!PDT:
!!!PPP:
!!!ENC: dr Marcin Konik
!!!END: 2015-03-19
!!!YOO:
!!!YEM: Creative Commons CC/BY/NC/SA 4.0
!!!EED: Marcin Konik
!!!ONB: Encoded in vim by Marcin Konik
!!!CharacterEncoding: utf-8
!!!RDF**kern: l=long note in original notation
!!!RDF**kern: i=editorial accidental
!!muse2ps: z14jc180F*kern
!!title: @{CDT}, @{OTL}, ed. @{ENC}
**kern	**kern	**kern	**kern
*part4	*part3	*part2	*part1
*staff4	*staff3	*staff2	*staff1
*clefF4	*clefF4	*clefGv2	*clefG2
*k[]	*k[]	*k[]	*k[]
*M3/1	*M3/1	*M3/1	*M3/1
=1-	=1-	=1-	=1-
2G	2G	2d	2g
2D	2A	2d	2f#
1G	1B	1B	1d
1E	1B	1e	1g
=2	=2	=2	=2
2E	2B	2e	2g
2D	2d	2f#	2f#
2E	2B	2g	2e
2BB	2d	2f#	2f#
1E	1B	1e	1g
=3	=3	=3	=3
2BB	2B	1d	1f#
1B	1d	.	.
.	.	2f#	2f#
2E	2e	2g	1b
1F#	1c#	1f#	.
.	.	.	2a#
=4	=4	=4	=4
1BB	1B	1d	1b
2B	2B	2f#	2b
2G	2d	2g	2b
2A	2c#	2e	2a
2E	2B	2e	2g
=5	=5	=5	=5
1G	1B	1d	1g
2G	2G	2d	2g
1D	1A	1d	2.f#
.	.	.	4e
2E	2G	2B	[2e
=6	=6	=6	=6
1BB	1F#	1B	2e]
.	.	.	2d#
1E	1E	1B	1e
2E	2E	2B	2g
2D	2A	2d	2f#
=7	=7	=7	=7
2AA	2A	2c#	2e
2E	2G	2B	2g
4D	1A	1d	1f#
4E	.	.	.
4F#	.	.	.
4G	.	.	.
2A	2F#	2c#	2f#
[2E	[2G	[2e	[2b
=8	=8	=8	=8
2E]	2G]	4e]	2b]
.	.	4d	.
2F#	2F#	1d	2a
1G	1E	.	1g
.	.	2c#	.
1A	1D	1d	1f#
=9	=9	=9	=9
2D	2A	2d	2f#
2D	2d	2f#	2a
2BB	2d	2f#	2b
2E	2B	1e	2g
1BB	1B	.	1f#
.	.	2d	.
=10	=10	=10	=10
2E	2G	2e	2g
2F#	1A	2c#	2.f#
2D	.	2d	.
.	.	.	4e
2E	2G	1.B	1e
1BB	1F#	.	.
.	.	.	2d#
=11	=11	=11	=11
1E	1E	1B	1e
1D	1A	1d	1f#
2E	2G	1B	2e
[2G	[2B	.	[2d
=12	=12	=12	=12
2G]	2B]	4G	2d]
.	.	4A	.
4F#	4A	4B	2e
4E	4G	4c#	.
2D	2A	2d	2f#
2E	2G	2c#	1e
1BB	1F#	1B	.
.	.	.	2d#
=13	=13	=13	=13
0.E	0.E	0.B	0.e
==	==	==	==
*-	*-	*-	*-
